X: 1638
T: Byrne's Hornpipe
M:C|
L:1/8
B:O'Neill's 1638
N:"collected by Early"
Z:Transcribed by Nick Terhorst, nickte@microsoft.com
N: Fixed staff breaks [jc]
N: Fixed line wrapping [jc]
K:D
A>G|F>EF>G A>FD>c|d>Bc>d e>cA>g|f>dg>e f>de>c|(3dcB c>d e>cA>G|
|F>EF>G A>FD>c|d>Bc>d e>cA>g|(3faf d>f (3ege c>e|d>fe>c d2:|
|:c>d|e>cA>c e>fg>e|a>fd>f b>ge>g|a>fd>f g>ea>f|(3gfe f>d e>cA>G|
|F>EF>G A>FD>c|d>Bc>d e>cA>g|(3faf d>f (3ege c>e|d>fe>c d2:|


